X: 40
T: Gordon's Tune
M: C
L: 1/8
B: "O'Neill's 40"
N: "With spirit" "collected by J. O'Neill"
Z: "Transcribed by Norbert Paap, norbertp@bdu.uva.nl"
K:Gm
dc | B2 Bc B2 AG | G>A Bc d2 cA | G2 GF D2 D^F | G4 G2 dc |
B2 Bc B2 AG | G>A Bc d2 cA | G2 GF D2 D^F | G4 G2 ||
GA | B2 c2 d3 B | c2 d=e f2 d>g | g>f dc B2 d2 | c3 B G2 dc |
B2 Bc B2 AG | G>A Bc d2 cA | G2 GF D2 D^F | G4 G2 ||


